{"compressionlevel":-1,"type":"map","version":"1.10","tiledversion":"1.10.2","orientation":"orthogonal","renderorder":"right-down","infinite":false,"width":36,"height":36,"tilewidth":16,"tileheight":16,"nextlayerid":4,"nextobjectid":26,"layers":[{"id":1,"name":"ground","type":"tilelayer","x":0,"y":0,"width":36,"height":36,"opacity":1,"visible":true,"data":[1,1,1,1,1,1,1,1,1,1,1,1,1,1,1,1,1,1,1,1,1,1,1,1,1,1,1,1,1,1,1,1,1,1,1,1,1,1,1,1,1,1,1,1,1,1,1,1,1,1,1,1,1,1,1,1,1,1,1,1,1,1,1,1,1,1,1,1,1,1,1,1,1,1,1,1,1,2,1,1,1,1,1,1,1,1,1,1,1,1,1,1,2,1,1,1,1,1,1,1,1,1,1,1,1,1,1,1,1,1,1,1,1,1,1,1,1,1,1,1,1,1,1,1,1,1,1,1,2,1,2,1,1,1,1,1,1,1,1,1,1,1,1,1,1,1,2,1,1,1,1,2,2,2,1,1,1,1,1,1,1,1,1,1,2,1,1,1,1,1,1,2,1,1,2,1,1,1,1,1,1,1,1,1,1,1,1,1,1,1,1,1,2,1,1,2,1,1,1,1,1,1,1,1,1,1,1,1,1,1,1,1,1,1,1,1,1,1,1,1,1,1,1,1,1,2,1,1,1,1,2,1,1,1,1,1,2,1,1,1,1,2,1,1,1,2,1,1,2,1,1,1,1,1,1,1,1,1,1,1,1,1,1,1,1,1,1,1,2,2,1,1,1,2,1,1,1,1,1,1,1,1,1,1,1,1,1,1,1,1,1,1,1,1,1,1,4,4,4,4,4,4,4,4,4,4,4,4,4,4,4,4,4,4,4,4,1,1,1,1,1,1,1,1,1,1,1,1,1,1,2,1,4,17,17,17,17,17,17,17,17,17,17,17,17,17,17,17,17,17,17,4,1,1,1,2,1,1,1,1,1,1,1,2,1,1,1,1,4,17,17,17,17,17,17,17,17,17,17,17,17,17,17,17,17,17,17,4,1,1,1,1,1,1,1,1,1,1,1,1,1,1,1,1,4,17,17,17,17,17,17,17,17,17,17,17,17,17,17,17,17,17,17,4,1,1,1,1,1,1,1,1,1,1,1,1,1,1,1,1,4,18,18,18,18,18,18,18,18,19,19,18,18,18,18,18,18,18,18,4,2,1,1,1,1,1,1,1,1,1,1,1,1,1,1,1,4,4,4,4,4,4,4,4,4,4,4,4,4,4,4,4,4,4,4,4,1,1,1,1,1,1,1,1,1,1,1,1,1,1,1,1,4,4,4,4,4,4,4,4,4,4,4,4,4,4,4,4,4,4,4,4,1,1,1,1,1,1,1,1,1,1,1,2,1,1,1,1,4,4,4,4,4,4,4,4,4,4,4,4,4,4,4,4,4,4,4,4,1,1,1,1,1,1,1,1,1,1,1,1,1,1,1,1,4,4,4,4,4,4,4,4,4,4,4,4,4,4,4,4,4,4,4,4,1,1,1,1,1,1,1,1,1,1,2,1,1,1,1,2,4,4,4,4,4,4,4,4,4,4,4,4,4,4,4,4,4,4,4,4,3,3,3,3,3,3,3,3,1,1,1,1,1,1,1,1,4,4,4,4,4,4,4,4,4,4,4,4,4,4,4,4,4,4,4,4,3,3,3,3,3,3,3,3,1,1,1,1,1,1,1,1,4,4,4,4,4,4,4,4,4,4,4,4,4,4,4,4,4,4,4,4,1,1,1,1,1,1,1,1,1,1,1,1,1,1,2,1,4,4,4,4,4,4,4,4,4,4,4,4,4,4,4,4,4,4,4,4,1,2,1,1,1,1,1,1,1,1,1,1,1,1,2,2,4,4,4,4,4,4,4,4,4,4,4,4,4,4,4,4,4,4,4,4,1,1,1,1,1,1,1,1,1,1,1,2,1,1,1,1,4,4,4,4,4,4,4,4,4,4,4,4,4,4,4,4,4,4,4,4,1,1,1,2,1,1,1,1,1,1,1,1,1,1,2,2,4,4,4,4,4,4,4,4,4,4,4,4,4,4,4,4,4,4,4,4,1,1,1,2,1,1,1,1,1,1,1,1,2,1,1,1,4,4,4,4,4,4,4,4,4,4,4,4,4,4,4,4,4,4,4,4,1,1,1,1,1,1,1,1,1,1,1,1,1,1,1,1,4,4,4,4,4,4,4,4,4,4,4,4,4,4,4,4,4,4,4,4,1,1,1,2,1,1,1,1,1,1,2,1,1,2,1,1,4,4,4,4,4,4,4,4,4,4,4,4,4,4,4,4,4,4,4,4,1,1,1,2,2,2,1,1,1,1,1,1,1,2,1,1,4,4,4,4,4,4,4,4,4,4,4,4,4,4,4,4,4,4,4,4,1,1,1,1,1,1,1,1,1,1,1,1,1,1,1,1,2,2,1,1,1,1,1,1,1,3,3,1,2,1,1,1,1,1,1,1,1,1,1,1,1,1,1,1,1,1,1,1,2,1,1,2,1,1,2,2,1,1,1,1,1,3,3,1,1,1,1,1,1,1,1,1,1,1,2,1,1,1,1,1,1,1,1,2,1,2,1,2,2,1,1,1,1,1,1,1,1,3,3,1,2,1,1,1,1,1,1,1,1,1,1,1,1,1,1,1,1,1,2,1,1,1,1,1,2,1,1,1,1,1,1,2,1,3,3,1,1,1,2,1,1,1,1,1,1,1,1,1,1,1,1,1,1,1,1,1,2,1,1,1,1,1,1,1,1,2,1,2,1,3,3,1,1,1,1,1,1,2,1,2,1,1,1,1,1,1,1,1,1,1,1,1,1,1,1,1,1,2,1,1,1,1,1,2,1,3,3,1,1,1,2,1,1,1,1,1,1,1,1,1,1,2,1,1,1,1,1,1,1,1,1,1,1,1,1,1,1,1,1,1,1,3,3,1,1,1,1,1,1,1,1,1,1,1,1,1,1,1,1,1,1,1,1,1,1,1,1,1,1,1,1,1,1,1,1,1,1,3,3,1,1,1,1,1,1,1,1,1,1,1,1,1,1,1,1,1]},{"id":2,"name":"sorted","type":"tilelayer","x":0,"y":0,"width":36,"height":36,"opacity":1,"visible":true,"data":[9,9,9,9,9,9,9,9,9,9,9,9,9,9,9,9,9,9,9,9,9,9,9,9,9,9,9,9,9,9,9,9,9,9,9,9,9,9,9,9,9,9,9,9,9,9,9,9,9,9,9,9,9,9,9,9,9,9,9,9,9,9,9,9,9,9,9,9,9,9,9,9,9,9,0,0,0,0,0,0,0,0,0,0,0,0,0,0,0,0,0,0,0,9,0,0,0,0,0,0,0,0,0,0,0,0,9,9,9,9,0,0,0,0,0,0,0,0,0,9,0,0,0,0,0,0,0,0,0,0,0,0,0,0,0,0,0,0,0,0,0,0,9,9,9,9,0,0,0,0,0,0,0,0,0,0,0,0,0,0,9,0,0,0,0,0,0,0,0,0,0,0,10,0,0,0,0,0,9,9,9,9,0,0,0,0,0,0,0,0,0,0,0,0,10,0,0,0,0,0,0,0,0,0,0,9,0,0,0,0,0,0,9,0,9,9,9,9,0,0,0,0,0,0,0,0,0,0,0,0,0,0,0,0,0,9,0,9,10,0,0,0,0,0,0,0,0,0,0,0,9,9,9,9,0,0,0,0,0,0,0,0,9,0,0,0,0,0,0,0,0,0,0,0,0,0,9,0,0,0,0,0,0,0,0,0,9,9,9,9,0,0,0,0,0,0,11,11,11,11,12,12,12,11,11,11,11,11,11,11,11,11,11,11,11,11,0,0,0,0,0,0,9,9,9,9,0,0,0,0,0,0,11,0,0,0,0,0,0,0,0,0,0,0,0,0,0,0,0,0,0,11,0,0,0,0,0,0,9,9,9,9,0,0,0,0,0,0,11,0,0,0,0,0,0,0,0,0,0,0,0,0,0,0,0,0,0,11,0,0,0,0,0,0,9,9,9,9,0,0,0,0,0,0,11,0,0,0,0,0,0,0,0,0,0,0,0,0,0,0,0,0,0,11,0,9,0,0,0,0,9,9,9,9,0,9,0,0,0,0,11,0,0,0,13,0,0,0,0,0,0,0,0,0,0,13,0,0,0,11,0,0,0,0,0,0,9,9,9,9,0,0,0,0,0,0,11,0,0,0,0,0,0,0,0,0,0,0,0,0,0,0,0,0,0,11,0,0,0,0,0,0,9,9,9,9,9,0,0,0,0,0,11,0,0,0,0,0,0,0,0,0,0,0,0,0,0,0,0,0,0,11,0,0,0,0,0,10,9,9,9,9,0,0,0,0,0,0,11,0,0,0,0,0,0,0,0,0,0,0,0,0,0,0,0,0,0,11,0,0,0,9,0,0,9,9,9,9,0,9,0,0,0,0,11,0,0,0,0,0,0,12,12,12,12,12,12,0,0,0,0,0,0,11,0,0,0,9,0,0,9,9,9,9,0,0,0,0,0,0,11,0,0,0,0,0,0,0,0,0,0,0,0,0,0,0,0,0,0,0,0,0,0,0,0,0,0,0,9,9,0,0,0,0,0,0,11,0,0,0,0,0,0,0,0,0,0,0,0,0,0,0,0,0,0,0,0,0,0,0,0,0,0,0,9,9,0,0,0,0,0,0,11,0,0,0,0,0,0,12,12,0,0,0,0,0,0,0,0,0,0,11,0,0,0,0,0,0,9,9,9,9,0,0,0,0,0,0,12,0,0,0,0,0,0,0,0,0,0,0,0,0,0,0,0,0,0,11,0,0,0,0,0,0,9,9,9,9,0,0,0,0,0,0,12,0,0,0,0,0,0,0,0,0,0,0,0,0,0,0,0,0,0,11,0,0,9,9,0,0,9,9,9,9,0,0,0,0,9,0,12,0,0,0,0,0,0,0,0,0,0,0,0,0,0,0,0,0,0,11,0,0,9,0,0,0,9,9,9,9,0,9,0,0,0,0,12,0,0,0,13,0,0,0,0,0,0,0,0,0,0,13,0,0,0,11,0,0,0,0,0,0,9,9,9,9,10,9,0,0,0,0,11,0,0,0,0,0,0,0,0,0,0,0,0,0,0,0,0,0,0,11,0,0,0,0,0,0,9,9,9,9,0,0,0,0,0,0,11,0,0,0,0,0,0,0,0,0,0,0,0,0,0,0,0,0,0,11,0,0,0,0,0,9,9,9,9,9,0,0,0,0,0,0,11,0,0,0,0,0,0,0,0,0,0,0,0,0,0,0,0,0,0,11,0,0,10,0,0,0,9,9,9,9,0,0,0,0,0,0,11,11,11,11,11,11,11,11,11,0,0,11,11,11,11,11,11,11,11,11,0,0,0,0,0,9,9,9,9,9,0,0,0,0,9,0,0,0,0,0,9,0,0,0,9,0,0,0,0,0,0,0,0,10,0,0,0,0,0,0,0,0,9,9,9,9,0,0,0,9,0,0,0,0,0,0,0,0,0,0,0,0,0,0,0,0,0,0,0,0,0,0,0,0,0,0,0,0,9,9,9,9,0,0,0,0,0,0,0,0,9,0,0,0,0,0,9,0,0,0,0,0,0,0,0,0,0,0,0,0,0,0,0,0,9,9,9,9,0,0,0,0,0,9,0,0,0,0,0,0,0,0,0,0,0,0,0,0,0,0,0,0,0,0,0,0,0,0,0,0,9,9,9,9,0,0,0,0,0,0,0,0,0,0,0,0,0,0,0,0,0,0,0,0,0,0,0,0,0,0,0,9,0,0,0,0,9,9,9,9,0,0,0,0,10,0,0,0,9,0,10,10,0,0,0,0,0,0,0,0,0,0,9,0,0,0,0,0,0,0,0,0,9,9,9,9,9,9,9,9,9,9,9,9,9,9,9,9,9,9,9,0,0,9,9,9,9,9,9,9,9,9,9,9,9,9,9,9,9,9,9,9,9,9,9,9,9,9,9,9,9,9,9,9,9,9,9,0,0,9,9,9,9,9,9,9,9,9,9,9,9,9,9,9,9,9]},{"id":3,"name":"objects","type":"objectgroup","draworder":"topdown","x":0,"y":0,"opacity":1,"visible":true,"objects":[{"id":1,"name":"from_clareira","type":"spawn","point":true,"x":280,"y":520,"width":0,"height":0,"rotation":0,"visible":true},{"id":2,"name":"from_estrada","type":"spawn","point":true,"x":520,"y":280,"width":0,"height":0,"rotation":0,"visible":true},{"id":3,"name":"para clareira","type":"exit","x":272,"y":560,"width":32,"height":16,"rotation":0,"visible":true,"properties":[{"name":"area","type":"string","value":"clareira"},{"name":"spawn","type":"string","value":"from_ruinas"}]},{"id":4,"name":"para estrada","type":"exit","x":560,"y":272,"width":16,"height":32,"rotation":0,"visible":true,"properties":[{"name":"area","type":"string","value":"estrada"},{"name":"spawn","type":"string","value":"from_ruinas"},{"name":"unless","type":"string","value":"clock:12"}]},{"id":5,"name":"servo-enferrujado","type":"enemy","point":true,"x":280,"y":232,"width":0,"height":0,"rotation":0,"visible":true,"properties":[{"name":"creature","type":"string","value":"encounter-servo-enferrujado"},{"name":"group","type":"string","value":"salao"}]},{"id":6,"name":"Fiapo","type":"enemy","point":true,"x":328,"y":168,"width":0,"height":0,"rotation":0,"visible":true,"properties":[{"name":"creature","type":"string","value":"encounter-fiapo-de-ruido"},{"name":"group","type":"string","value":"salao"}]},{"id":7,"name":"barril","type":"prop","gid":15,"x":288,"y":240,"width":16,"height":32,"rotation":0,"visible":true,"properties":[{"name":"kind","type":"string","value":"barrel"}]},{"id":8,"name":"caixote","type":"prop","gid":14,"x":208,"y":352,"width":16,"height":32,"rotation":0,"visible":true,"properties":[{"name":"kind","type":"string","value":"crate"}]},{"id":9,"name":"caixote","type":"prop","gid":14,"x":224,"y":352,"width":16,"height":32,"rotation":0,"visible":true,"properties":[{"name":"kind","type":"string","value":"crate"}]},{"id":10,"name":"caixote","type":"prop","gid":14,"x":352,"y":368,"width":16,"height":32,"rotation":0,"visible":true,"properties":[{"name":"kind","type":"string","value":"crate"}]},{"id":11,"name":"barril","type":"prop","gid":15,"x":368,"y":304,"width":16,"height":32,"rotation":0,"visible":true,"properties":[{"name":"kind","type":"string","value":"barrel"}]},{"id":12,"name":"Inscrição","type":"npc","point":true,"x":296,"y":136,"width":0,"height":0,"rotation":0,"visible":true,"properties":[{"name":"dialog","type":"string","value":"inscricao"}]},{"id":13,"name":"Sentinela","type":"enemy","point":true,"x":88,"y":88,"width":0,"height":0,"rotation":0,"visible":true,"properties":[{"name":"creature","type":"string","value":"encounter-servo-enferrujado"},{"name":"dialog","type":"string","value":"sentinela"},{"name":"group","type":"string","value":"sentinela"},{"name":"onDefeat","type":"string","value":"sentinela_caiu"},{"name":"passive","type":"bool","value":true},{"name":"unless","type":"string","value":"sentinela_fora"}]},{"id":14,"name":"aviso da sentinela","type":"trigger","x":32,"y":32,"width":112,"height":96,"rotation":0,"visible":true,"properties":[{"name":"dialog","type":"string","value":"sentinela_aviso"},{"name":"once","type":"bool","value":false},{"name":"unless","type":"string","value":"sentinela_fora"}]},{"id":15,"name":"o compasso do salão","type":"cue","point":true,"x":312,"y":120,"width":0,"height":0,"rotation":0,"visible":true,"properties":[{"name":"dialog","type":"string","value":"salao_compasso"},{"name":"group","type":"string","value":"salao"},{"name":"when","type":"string","value":"round 2"}]},{"id":16,"name":"o fiapo se cala","type":"cue","point":true,"x":328,"y":120,"width":0,"height":0,"rotation":0,"visible":true,"properties":[{"name":"dialog","type":"string","value":"salao_silencio"},{"name":"ends","type":"string","value":"win"},{"name":"goal","type":"string","value":"Cale o Fiapo"},{"name":"group","type":"string","value":"salao"},{"name":"when","type":"string","value":"down Fiapo"}]},{"id":17,"name":"fim do turno da noite","type":"cue","point":true,"x":120,"y":56,"width":0,"height":0,"rotation":0,"visible":true,"properties":[{"name":"dialog","type":"string","value":"sentinela_fim_do_turno"},{"name":"ends","type":"string","value":"stop"},{"name":"goal","type":"string","value":"Aguente até o turno da noite acabar"},{"name":"group","type":"string","value":"sentinela"},{"name":"when","type":"string","value":"round 4"}]},{"id":18,"name":"as juntas da sentinela","type":"cue","x":136,"y":56,"width":0,"height":0,"rotation":0,"visible":true,"properties":[{"name":"apply","type":"string","value":"exposed 2"},{"name":"dialog","type":"string","value":"sentinela_trava"},{"name":"group","type":"string","value":"sentinela"},{"name":"when","type":"string","value":"round 3"}],"point":true},{"id":19,"name":"Coletor","type":"enemy","x":488,"y":56,"width":0,"height":0,"rotation":0,"visible":true,"properties":[{"name":"creature","type":"string","value":"encounter-coletor-de-lembrancas"},{"name":"group","type":"string","value":"coletor"},{"name":"passive","type":"bool","value":true},{"name":"unless","type":"string","value":"coletor_fora"}],"point":true},{"id":20,"name":"chegada do coletor","type":"trigger","x":432,"y":32,"width":112,"height":64,"rotation":0,"visible":true,"properties":[{"name":"dialog","type":"string","value":"coletor_chegada"},{"name":"once","type":"bool","value":false},{"name":"unless","type":"string","value":"coletor_fora"}]},{"id":21,"name":"Sino","type":"prop","x":432,"y":112,"width":16,"height":32,"rotation":0,"visible":true,"properties":[{"name":"kind","type":"string","value":"bell"}],"gid":16},{"id":22,"name":"o sino toca","type":"cue","x":440,"y":24,"width":0,"height":0,"rotation":0,"visible":true,"properties":[{"name":"dialog","type":"string","value":"coletor_sino"},{"name":"ends","type":"string","value":"win"},{"name":"goal","type":"string","value":"Toque o sino de bronze"},{"name":"group","type":"string","value":"coletor"},{"name":"when","type":"string","value":"used Sino"}],"point":true},{"id":23,"name":"o coletor se farta","type":"cue","x":456,"y":24,"width":0,"height":0,"rotation":0,"visible":true,"properties":[{"name":"dialog","type":"string","value":"coletor_farto"},{"name":"ends","type":"string","value":"stop"},{"name":"goal","type":"string","value":"Antes que ele leve o que veio buscar"},{"name":"group","type":"string","value":"coletor"},{"name":"when","type":"string","value":"round 6"}],"point":true},{"id":24,"name":"chegada pelas ruínas","type":"trigger","x":256,"y":496,"width":48,"height":48,"rotation":0,"visible":true,"properties":[{"name":"dialog","type":"string","value":"ruinas_anoitece"}]},{"id":25,"name":"estrada no escuro","type":"trigger","x":544,"y":272,"width":16,"height":32,"rotation":0,"visible":true,"properties":[{"name":"dialog","type":"string","value":"ruinas_escuro"},{"name":"if","type":"string","value":"clock:12"},{"name":"once","type":"bool","value":false}]}]}],"tilesets":[{"firstgid":1,"name":"placeholder","image":"../tilesets/placeholder.png","imagewidth":128,"imageheight":16,"tilewidth":16,"tileheight":16,"tilecount":8,"columns":8,"margin":0,"spacing":0,"tiles":[{"id":4,"properties":[{"name":"moveCost","type":"int","value":2}]},{"id":5,"properties":[{"name":"blocksMove","type":"bool","value":true}]}]},{"firstgid":9,"name":"placeholder-tall","image":"../tilesets/placeholder-tall.png","imagewidth":128,"imageheight":32,"tilewidth":16,"tileheight":32,"tilecount":8,"columns":8,"margin":0,"spacing":0,"tiles":[{"id":0,"properties":[{"name":"blocksMove","type":"bool","value":true},{"name":"blocksSight","type":"bool","value":true}]},{"id":1,"properties":[{"name":"blocksMove","type":"bool","value":true},{"name":"cover","type":"bool","value":true}]},{"id":2,"properties":[{"name":"blocksMove","type":"bool","value":true},{"name":"blocksSight","type":"bool","value":true}]},{"id":3,"properties":[{"name":"blocksMove","type":"bool","value":true},{"name":"cover","type":"bool","value":true}]},{"id":4,"properties":[{"name":"blocksMove","type":"bool","value":true},{"name":"blocksSight","type":"bool","value":true}]}]},{"firstgid":17,"name":"placeholder-high","image":"../tilesets/placeholder-high.png","imagewidth":64,"imageheight":16,"tilewidth":16,"tileheight":16,"tilecount":4,"columns":4,"margin":0,"spacing":0,"tiles":[{"id":0,"properties":[{"name":"elevation","type":"int","value":1}]},{"id":1,"properties":[{"name":"blocksMove","type":"bool","value":true}]}]}]}